svgs/solid/tickets.svg

<svg xmlns="http://www.w3.org/2000/svg" viewBox="0 0 640 512"><!--! Font Awesome Pro 6.6.0 by @fontawesome - https://fontawesome.com License - https://fontawesome.com/license (Commercial License) Copyright 2024 Fonticons, Inc. --><path d="M96 96l0 48c0 8.8 7.4 15.7 15.7 18.6C130.5 169.1 144 187 144 208s-13.5 38.9-32.3 45.4C103.4 256.3 96 263.2 96 272l0 48c0 35.3 28.7 64 64 64l416 0c35.3 0 64-28.7 64-64l0-48c0-8.8-7.4-15.7-15.7-18.6C605.5 246.9 592 229 592 208s13.5-38.9 32.3-45.4c8.3-2.9 15.7-9.8 15.7-18.6l0-48c0-35.3-28.7-64-64-64L160 32c-35.3 0-64 28.7-64 64zm416 32l-288 0 0 160 288 0 0-160zM224 96l288 0c17.7 0 32 14.3 32 32l0 160c0 17.7-14.3 32-32 32l-288 0c-17.7 0-32-14.3-32-32l0-160c0-17.7 14.3-32 32-32zM48 120c0-13.3-10.7-24-24-24S0 106.7 0 120L0 360c0 66.3 53.7 120 120 120l400 0c13.3 0 24-10.7 24-24s-10.7-24-24-24l-400 0c-39.8 0-72-32.2-72-72l0-240z"/></svg>

<svg xmlns="http://www.w3.org/2000/svg" viewBox="0 0 640 512"><!--! Font Awesome Pro 6.5.2 by @fontawesome - https://fontawesome.com License - https://fontawesome.com/license (Commercial License) Copyright 2024 Fonticons, Inc. --><path d="M96 96v48c0 8.8 7.4 15.7 15.7 18.6C130.5 169.1 144 187 144 208s-13.5 38.9-32.3 45.4C103.4 256.3 96 263.2 96 272v48c0 35.3 28.7 64 64 64H576c35.3 0 64-28.7 64-64V272c0-8.8-7.4-15.7-15.7-18.6C605.5 246.9 592 229 592 208s13.5-38.9 32.3-45.4c8.3-2.9 15.7-9.8 15.7-18.6V96c0-35.3-28.7-64-64-64H160c-35.3 0-64 28.7-64 64zm416 32H224V288H512V128zM224 96H512c17.7 0 32 14.3 32 32V288c0 17.7-14.3 32-32 32H224c-17.7 0-32-14.3-32-32V128c0-17.7 14.3-32 32-32zM48 120c0-13.3-10.7-24-24-24S0 106.7 0 120V360c0 66.3 53.7 120 120 120H520c13.3 0 24-10.7 24-24s-10.7-24-24-24H120c-39.8 0-72-32.2-72-72V120z"/></svg>
